X:19022
T:Xiraldilla (CT 242)
R:Xiraldilla
C:Tradicional
S:Msica Tradicional Asturiana, (C) Tello & Tito. Asturies, 2001.
S:http://pagina.de/MusTradAst <telloytito@asturies.org>
N:Xiraldilla, transcrita en Uviu.
O:Uviu
A:Asturies
Z:Cancioneru de Torner 242
M:3/8
L:1/8
Q:3/8=88
W:Cuandu te vi na fonte
W:tou m'empapiell
W:y nun pude falate
W:del mio grande querer.
W:
W:El mio grande querer,
W:bien lo puedes decir,
W:que nun hai otru en contornu
W:que se muerra por ti.
W:
W:Que se muerra por ti
W:comu me muerro yo.
W:Ai! mio nea del alma,
W:nun me digas que non.
K:G
d2d|cdc|B2c|d2d|cdc|B3|
c2c|BAG|F2G|c2c|BBA|G3|
